X:1032
T:Sunset Over Foula
C:Joe Buchanan's Scottish Tome - Page 619.3
I:619 3
Z:Carl Allison
R:Waltz
L:1/4
M:3/4
K:D
A | "D"d2 e | "Bm"d2 F | "F#m"A3 | "D7"F2 A | "G"B2 c | "D"d2 F | "Em"A3- | "A7"A2 A |
"D"f2 g | "F#7"f2 e | "Bm"d3 | "D"A2 d | "G"B2 d | "D"d2 G | "Em"E3- | E2 A |
"D"d2 e | "Bm"d2 F | "F#m"A3 | "D7"F2 A | "G"B2 c | "D"d2 F | "Em"A3- | "A7"A2 A |
"D"f2 g | "F#7"f2 e | "B3"d3 | "E7"B2 d | "D"A2 d | "A7"f2 e | "D"d3- | "D"d2 :|

